localPackages/DesignSystem/Sources/DesignSystem/Resources/Assets.xcassets/IconSet/ic-arrows-up-and-left.imageset/ic-arrows-up-and-left.svg

<svg width="24" height="24" viewBox="0 0 24 24" fill="none" xmlns="http://www.w3.org/2000/svg">
<g id="ic-arrows-up-and-left">
<path id="Icon" fill-rule="evenodd" clip-rule="evenodd" d="M8.48988 11.25L12.5289 7.28182C12.8244 6.99152 12.8272 6.51807 12.5351 6.22433C12.2431 5.9306 11.7668 5.92781 11.4714 6.21811L6.34415 11.2554C5.92702 11.6652 5.92703 12.3348 6.34415 12.7446L11.4714 17.7818C11.7668 18.0721 12.2431 18.0693 12.5351 17.7756C12.8272 17.4819 12.8244 17.0084 12.5289 16.7181L8.48988 12.75H18.7456C19.9883 12.75 20.9956 13.7573 20.9956 15L20.9956 18.75C20.9956 19.1642 21.3314 19.5 21.7456 19.5C22.1599 19.5 22.4956 19.1642 22.4956 18.75L22.4956 15C22.4956 12.9289 20.8167 11.25 18.7456 11.25H8.48988ZM3.20243 12L8.02759 7.28314C8.3238 6.99358 8.3278 6.52013 8.03651 6.22567C7.74522 5.93121 7.26896 5.92724 6.97274 6.2168L1.82034 11.2535C1.40071 11.6637 1.40071 12.3362 1.82034 12.7464L6.97274 17.7831C7.26896 18.0727 7.74522 18.0687 8.03651 17.7743C8.3278 17.4798 8.3238 17.0064 8.02759 16.7168L3.20243 12Z" fill="#0F0F0F"/>
</g>
</svg>

<svg xmlns="http://www.w3.org/2000/svg" width="24" height="24" viewBox="0 0 24 24">
  <g class="ic-arrows-up-and-left">
    <path fill-rule="evenodd" d="m8.488 11.25 4.04-3.968a.745.745 0 0 0 .005-1.058.755.755 0 0 0-1.063-.006l-5.128 5.037a1.043 1.043 0 0 0 0 1.49l5.128 5.037a.755.755 0 0 0 1.063-.007.745.745 0 0 0-.006-1.057L8.488 12.75h10.256a2.25 2.25 0 0 1 2.25 2.25v3.75a.75.75 0 0 0 1.5 0V15a3.75 3.75 0 0 0-3.75-3.75H8.488ZM3.201 12l4.825-4.717c.296-.29.3-.763.009-1.058a.755.755 0 0 0-1.064-.008l-5.152 5.036c-.42.41-.42 1.083 0 1.493l5.152 5.037a.755.755 0 0 0 1.064-.009.745.745 0 0 0-.01-1.057L3.202 12Z" class="Icon"/>
  </g>
</svg>
